!!!OTL: 83. Zay gezunt
!!!Genre:	Zay gezunt
!!!Mode:	Minor
!!!Listening/dance:	listening
!!!One_Mode:	no
**kern
*I"P1
*clefG2
*k[b-e-]
*g:
*M2/4
*>A
*>bM
*B-:
=1
!LO:TX:a:i:t=Bb-major
16b-LL
16dd
16dd
16ddJJ
(16ddLL
16cc)
(8qdd/
16cc)
16b-JJ
=2
8ee-L
16ee-L
16ddJJ
4cc
=3
8gL
16aL
16b-JJ
8ccL
16b-L
16aJJ
=4
8b-L
8f
8d
8B-J
=5
16b-LL
16dd
16dd
16ddJJ
16ddLL
16cc
(8qdd/
16cc)
16b-JJ
=6
(8qb-/
8ee-L)
(16ee-L
16ddJJ)
4cc
*>eM
*g:
!LO:TX:a:i:t=G-minor
=7
8gL
16aL
16b-JJ
(8qdd/
8ccL)
16b-L
16aJJ
=8
2g
=9:|!|:
*>bM
*B-:
*>B
!LO:TX:a:i:t=Bb-major
16aLL
16b-JJ
4cc
8gg
=10
(16ggLL
16ff)
(16ff
16ee-JJ)
8ddtL
16ccL
16b-JJ
=11
16aLL
16b-JJ
4cc
24b-LL
24dd
24ccJJ
=12
8b-L
8f
8d
8B-J
=13
16aLL
16b-JJ
4cc
8gg
=14
(16ggLL
16ff)
(16ff
16ee-JJ)
8ddtL
16ccL
16b-JJ
*>eM
*g:
!LO:TX:a:i:t=G-minor
=15
16aLL
16b-
16cc
16b-JJ
(8qee-/
16.ddLL)
32cck
16b-
16aJJ
=16
2g
=17:|!|:
*>C
16ggLL
16gg
16gg
16ggJJ
16ggLL
16ff
16aa-X
16ggJJ
=18
16ffLL
16ff
16ff
16ffJJ
(8qgg/
16.ffLL)
32ee-k
16dd
16ccJJ
*>bM
*B-:
!LO:TX:a:i:t=Bb-major
=19
8gL
16aL
16b-JJ
(32ccLLL
32ddJ)
16cc
16b-
16aJJ
=20
8b-L
8f
8d
8B-J
*>eM
*g:
!LO:TX:a:i:t=G-minor
=21
16ggLL
16gg
16gg
16ggJJ
16ggLL
16ff
16aa-X
16ggJJ
=22
16ffLL
16ff
16ff
16ffJJ
16.ffLL
32ee-k
16dd
16ccJJ
=23
8gL
16aL
16b-JJ
16ccLL
(8qdd/
16cc')
16b-'
16a'JJ
=24
2g
=:|!
*-
